wp-content/themes/watts/images/pa-06-white.svg

<svg height="80.6" viewBox="0 0 78.8 80.6" width="78.8" xmlns="http://www.w3.org/2000/svg"><path d="m80.6 11.8h13.8v-2.1h-13.8a11.6 11.6 0 0 0 -6.7 2.6l-17.9 16.6v-5.8a5.46 5.46 0 0 0 4.4-5.3 5.4 5.4 0 0 0 -10.8 0 5.46 5.46 0 0 0 4.4 5.3v5.8l-17.9-16.5a11 11 0 0 0 -6.7-2.6h-13.8v2.1h13.8a8.58 8.58 0 0 1 5.3 2.1l2.8 2.6h-19.1v2.1h21.3l5 4.7h-23.6v2.1h25.9l7 6.4v11.8a10.33 10.33 0 0 1 -9.3-10.3 3.8 3.8 0 0 0 -7.6 0 17.91 17.91 0 0 0 6.9 14.1 17.86 17.86 0 0 0 0 28.2 18 18 0 0 0 -6.9 13.2 1 1 0 0 0 1.1 1.1h5.5a1 1 0 0 0 1-1 10.45 10.45 0 0 1 9.3-9.5v10.8h2v-10.8a10.45 10.45 0 0 1 9.3 9.5 1.08 1.08 0 0 0 1 1h5.5a.78.78 0 0 0 .7-.3 1.14 1.14 0 0 0 .3-.8 18 18 0 0 0 -6.9-13.2 17.86 17.86 0 0 0 0-28.2 17.76 17.76 0 0 0 6.9-14.1 3.8 3.8 0 0 0 -7.6 0 10.33 10.33 0 0 1 -9.3 10.3v-12l7-6.5h25.8v-2.1h-23.4l5-4.7h21.3v-2.1h-19.1l2.8-2.6a10.59 10.59 0 0 1 5.3-1.9zm-29 6a3.4 3.4 0 1 1 3.4 3.4 3.5 3.5 0 0 1 -3.4-3.4zm-12.5 15.4a1.7 1.7 0 1 1 3.4 0 12.53 12.53 0 0 0 7 11.2c-.3.1-.5.2-.8.3-.1 0-.1 0-.2.1a5.36 5.36 0 0 0 -1.1.5c-.1.1-.2.1-.3.2a1.61 1.61 0 0 0 -.7.4c-.1.1-.2.1-.4.2 0-.1-.1-.1-.2 0a15.88 15.88 0 0 1 -6.7-12.9zm31.6 54.6h-3.5a12.53 12.53 0 0 0 -6.9-9.3 6.89 6.89 0 0 0 .8-.3h.1a5.36 5.36 0 0 0 1.1-.5c.1-.1.2-.1.3-.2a2.51 2.51 0 0 0 .7-.4c.1-.1.3-.1.4-.2s.2-.1.3-.2a16 16 0 0 1 6.7 11.1zm.1-26.3a15.92 15.92 0 0 1 -15.9 15.9 12.55 12.55 0 0 0 -12.3 10.5h-3.5a15.95 15.95 0 0 1 15.8-14 12.46 12.46 0 0 0 12.4-12.4 3.75 3.75 0 0 0 -.1-1.1v-.3c0-.3-.1-.6-.1-.9v-.2c-.1-.4-.2-.7-.3-1.1 0-.1 0-.1-.1-.2a6.89 6.89 0 0 0 -.3-.8c0-.1-.1-.2-.1-.3-.1-.3-.3-.6-.4-.9v-.1l-.6-.9c-.1-.1-.1-.2-.2-.2-.2-.2-.3-.5-.5-.7l-.2-.2c-.2-.3-.5-.5-.7-.8l-.1-.1-.6-.6c-.1-.1-.2-.1-.2-.2a5.55 5.55 0 0 0 -.8-.6.1.1 0 0 1 -.1-.1l-.9-.6c-.1 0-.2-.1-.3-.1s-.2-.1-.3-.2c.3-.1.5-.2.8-.3.1 0 .1 0 .2-.1a5.36 5.36 0 0 0 1.1-.5c.1-.1.2-.1.3-.2a1.61 1.61 0 0 0 .7-.4c.1-.1.2-.1.4-.2s.2-.1.3-.2a16.29 16.29 0 0 1 6.6 13.1zm-14.8-10.3a10.35 10.35 0 0 1 0 20.6zm-2.1 20.6a10.35 10.35 0 0 1 0-20.6zm13.5-38.6a1.69 1.69 0 0 1 1.7-1.7 1.75 1.75 0 0 1 1.7 1.7 15.92 15.92 0 0 1 -15.9 15.9 12.46 12.46 0 0 0 -12.4 12.4 3.75 3.75 0 0 0 .1 1.1v.3c0 .3.1.6.1.9v.3c.1.4.2.7.3 1.1 0 .1.1.1.1.2a6.89 6.89 0 0 0 .3.8c0 .1.1.2.1.3.1.3.3.6.4.9v.1l.6.9c.1.1.1.2.2.2.2.2.3.5.5.7l.2.2c.2.3.5.5.7.8a.35.35 0 0 0 .2.1l.6.6c.1.1.2.1.2.2a5.55 5.55 0 0 0 .8.6l.1.1.9.6c.1 0 .2.1.3.1s.2.1.3.2c-.3.1-.5.2-.8.3a.1.1 0 0 0 -.1.1 5.36 5.36 0 0 0 -1.1.5c-.1 0-.2.1-.3.2-.3.1-.5.3-.8.4-.1.1-.2.1-.4.2s-.2.1-.3.2a15.91 15.91 0 0 1 9.3-28.8 12.93 12.93 0 0 0 12.4-12.7z" fill="#fff" transform="translate(-15.6 -9.7)"/></svg>

<svg id="Layer_1" data-name="Layer 1" xmlns="http://www.w3.org/2000/svg" width="78.8" height="80.6" viewBox="0 0 78.8 80.6">
  <defs>
    <style>
      .cls-1 {
        fill: #fff;
      }
    </style>
  </defs>
  <title>pa-06-white</title>
  <path class="cls-1" d="M80.6,11.8H94.4V9.7H80.6a11.6,11.6,0,0,0-6.7,2.6L56,28.9V23.1a5.46,5.46,0,0,0,4.4-5.3,5.4,5.4,0,0,0-10.8,0A5.46,5.46,0,0,0,54,23.1v5.8L36.1,12.4a11,11,0,0,0-6.7-2.6H15.6v2.1H29.4A8.58,8.58,0,0,1,34.7,14l2.8,2.6H18.4v2.1H39.7l5,4.7H21.1v2.1H47l7,6.4V43.7a10.33,10.33,0,0,1-9.3-10.3,3.8,3.8,0,0,0-7.6,0A17.91,17.91,0,0,0,44,47.5a17.86,17.86,0,0,0,0,28.2,18,18,0,0,0-6.9,13.2A1,1,0,0,0,38.2,90h5.5a1,1,0,0,0,1-1A10.45,10.45,0,0,1,54,79.5V90.3h2V79.5A10.45,10.45,0,0,1,65.3,89a1.08,1.08,0,0,0,1,1h5.5a.78.78,0,0,0,.7-.3,1.14,1.14,0,0,0,.3-.8,18,18,0,0,0-6.9-13.2,17.86,17.86,0,0,0,0-28.2,17.76,17.76,0,0,0,6.9-14.1,3.8,3.8,0,0,0-7.6,0,10.33,10.33,0,0,1-9.3,10.3v-12l7-6.5H88.7V23.1H65.3l5-4.7H91.6V16.3H72.5l2.8-2.6A10.59,10.59,0,0,1,80.6,11.8Zm-29,6A3.4,3.4,0,1,1,55,21.2,3.5,3.5,0,0,1,51.6,17.8ZM39.1,33.2a1.7,1.7,0,1,1,3.4,0,12.53,12.53,0,0,0,7,11.2c-.3.1-.5.2-.8.3-.1,0-.1,0-.2.1a5.36,5.36,0,0,0-1.1.5c-.1.1-.2.1-.3.2a1.61,1.61,0,0,0-.7.4c-.1.1-.2.1-.4.2,0-.1-.1-.1-.2,0A15.88,15.88,0,0,1,39.1,33.2ZM70.7,87.8H67.2a12.53,12.53,0,0,0-6.9-9.3,6.89,6.89,0,0,0,.8-.3h.1a5.36,5.36,0,0,0,1.1-.5c.1-.1.2-.1.3-.2a2.51,2.51,0,0,0,.7-.4c.1-.1.3-.1.4-.2s.2-.1.3-.2A16,16,0,0,1,70.7,87.8Zm.1-26.3A15.92,15.92,0,0,1,54.9,77.4,12.55,12.55,0,0,0,42.6,87.9H39.1a15.95,15.95,0,0,1,15.8-14A12.46,12.46,0,0,0,67.3,61.5a3.75,3.75,0,0,0-.1-1.1v-.3c0-.3-.1-.6-.1-.9V59c-.1-.4-.2-.7-.3-1.1,0-.1,0-.1-.1-.2a6.89,6.89,0,0,0-.3-.8c0-.1-.1-.2-.1-.3-.1-.3-.3-.6-.4-.9v-.1l-.6-.9c-.1-.1-.1-.2-.2-.2-.2-.2-.3-.5-.5-.7l-.2-.2c-.2-.3-.5-.5-.7-.8l-.1-.1-.6-.6c-.1-.1-.2-.1-.2-.2a5.55,5.55,0,0,0-.8-.6.1.1,0,0,1-.1-.1l-.9-.6c-.1,0-.2-.1-.3-.1s-.2-.1-.3-.2c.3-.1.5-.2.8-.3.1,0,.1,0,.2-.1a5.36,5.36,0,0,0,1.1-.5c.1-.1.2-.1.3-.2a1.61,1.61,0,0,0,.7-.4c.1-.1.2-.1.4-.2s.2-.1.3-.2A16.29,16.29,0,0,1,70.8,61.5ZM56,51.2a10.35,10.35,0,0,1,0,20.6ZM53.9,71.8a10.35,10.35,0,0,1,0-20.6ZM67.4,33.2a1.69,1.69,0,0,1,1.7-1.7,1.75,1.75,0,0,1,1.7,1.7A15.92,15.92,0,0,1,54.9,49.1,12.46,12.46,0,0,0,42.5,61.5a3.75,3.75,0,0,0,.1,1.1v.3c0,.3.1.6.1.9v.3c.1.4.2.7.3,1.1,0,.1.1.1.1.2a6.89,6.89,0,0,0,.3.8c0,.1.1.2.1.3.1.3.3.6.4.9v.1l.6.9c.1.1.1.2.2.2.2.2.3.5.5.7l.2.2c.2.3.5.5.7.8a.35.35,0,0,0,.2.1l.6.6c.1.1.2.1.2.2a5.55,5.55,0,0,0,.8.6l.1.1.9.6c.1,0,.2.1.3.1s.2.1.3.2c-.3.1-.5.2-.8.3a.1.1,0,0,0-.1.1,5.36,5.36,0,0,0-1.1.5c-.1,0-.2.1-.3.2-.3.1-.5.3-.8.4-.1.1-.2.1-.4.2s-.2.1-.3.2A15.91,15.91,0,0,1,55,45.9,12.93,12.93,0,0,0,67.4,33.2Z" transform="translate(-15.6 -9.7)"/>
</svg>
